icons/dingding-line.svg

<svg xmlns="http://www.w3.org/2000/svg" width="24" height="24" fill="none"><g clip-path="url(#a)"><g><path fill="#121212" d="M12 4C9.87827 4 7.84344 4.84285 6.34315 6.34315C4.84285 7.84344 4 9.87827 4 12C4 14.1217 4.84285 16.1566 6.34315 17.6569C7.84344 19.1571 9.87827 20 12 20C14.1217 20 16.1566 19.1571 17.6569 17.6569C19.1571 16.1566 20 14.1217 20 12C20 9.87827 19.1571 7.84344 17.6569 6.34315C16.1566 4.84285 14.1217 4 12 4ZM12 2C17.523 2 22 6.477 22 12C22 17.523 17.523 22 12 22C6.477 22 2 17.523 2 12C2 6.477 6.477 2 12 2ZM16.49 11.04L16.484 11.054C16.064 11.952 14.968 13.714 14.968 13.714L14.963 13.702L14.643 14.26H16.186L13.238 18.179L13.908 15.513H12.693L13.115 13.75C12.774 13.832 12.37 13.945 11.892 14.099C11.892 14.099 11.246 14.477 10.03 13.37C10.03 13.37 9.21 12.648 9.686 12.468C9.888 12.391 10.667 12.293 11.28 12.211C12.11 12.099 12.619 12.039 12.619 12.039C12.619 12.039 10.064 12.077 9.458 11.982C8.852 11.887 8.083 10.875 7.919 9.986C7.919 9.986 7.666 9.498 8.464 9.729C9.262 9.96 12.565 10.629 12.565 10.629C12.565 10.629 8.27 9.312 7.983 8.99C7.697 8.67 7.142 7.236 7.214 6.356C7.214 6.356 7.245 6.136 7.471 6.196C7.471 6.196 10.647 7.646 12.818 8.441C14.99 9.236 16.878 9.64 16.634 10.669C16.614 10.756 16.562 10.885 16.49 11.039V11.04Z"/></g></g><defs><clipPath id="a"><rect width="24" height="24" fill="white"/></clipPath></defs></svg>

<svg width="24" height="24" fill="none" xmlns="http://www.w3.org/2000/svg"><g clip-path="url(#a)"><path d="M12 4a8 8 0 1 0 0 16 8 8 0 0 0 0-16Zm0-2c5.523 0 10 4.477 10 10s-4.477 10-10 10S2 17.523 2 12 6.477 2 12 2Zm4.49 9.04-.006.014c-.42.898-1.516 2.66-1.516 2.66l-.005-.012-.32.558h1.543l-2.948 3.919.67-2.666h-1.215l.422-1.763a16.91 16.91 0 0 0-1.223.349s-.646.378-1.862-.729c0 0-.82-.722-.344-.902.202-.077.981-.175 1.594-.257.83-.112 1.339-.172 1.339-.172s-2.555.038-3.161-.057c-.606-.095-1.375-1.107-1.539-1.996 0 0-.253-.488.545-.257.798.231 4.101.9 4.101.9S8.27 9.312 7.983 8.99c-.286-.32-.841-1.754-.769-2.634 0 0 .031-.22.257-.16 0 0 3.176 1.45 5.347 2.245 2.172.795 4.06 1.199 3.816 2.228-.02.087-.072.216-.144.37v.001Z" /></g><defs><clipPath id="a"><path fill="#fff" d="M0 0h24v24H0z"/></clipPath></defs></svg>
